X: 1
T: Reel St. Antoine #2
R: reel
S: Portland Collection
Z: 2015 John Chambers <jc:trillian.mit.edu>
M: C|
K: A
e2 |\
"A"a2aa- aece | a2aa- aece | agfe dcBA | "E7"GABc defg |
"A"a2aa- aece | a2aa- aece | agfe dcBA | "E7"GABG "A"A2 :|
|:AB |\
"A"c2cc- cBce | dcBA GABc | "D"d2dd- dcdf | edcB AAEA |
"A(F#m)"c2cc- cBce | dcBA GABc | "D"defg afed | "E7"cABG "A"A2 :|
